X:1
T: Mrs Wildman's Strathspey
C:
R:Strathspey
Q: 128
K:D
M:4/4
L:1/16
|:B2|AF3 D3F E3F G3B|AF3 D3F Gd3 d3B|AF3 D3F E3F GB3|A2F2 G2E2 Dd3 d2B2|
AF3 D3F E3F G3B|AF3 D3F Gd3 d3B|AF3 D3F E3F GB3|A2F2 G2E2 Dd3 d2A2|
d3f e3g fd3 cA3|d3f e3g fa3 a3f|g3e f3d e3d cA3|B2cd edcB Ad3 d2A2|
d3f e3g f3d cA3|d3f e3g fa3 a3f|g2bg f2af e2fd c2BA|B2cd edcB Ad3 d2:|
